X:2
T:Grow Old With Me
C:John Lennon
L:1/8
M:C
I:linebreak $
K:G
"G" B3 G"D7" A3 G |"G" B4 z2 G2 |"Em" B2 d2 g f3 |"Bm" d8 |$"G" z2 Bd"D7" g f3 |"G" g8 |
"Em" Bd g f3 |"Bm" d8 |$"C" z2 e2"D7" f g3 |"G" d4"Em" z4 |"C" z2 e2"D7" dB A2 |"G" G8 :|$
"Em" z2 e2 f g3 |"Bm" f3 d e f3 |"Em" z2 e2 f g3 |"Bm" f3 d e f3 |$"C" e2 dc e4 |"Am" z8 |
"C" c2 BA c4 |"D7" z8 ||$"G" z8 "D7" x4|"Em" z8 |"Am" z8 "Bm6" x4|"C#m6" z8 |$"C" z8 "D7" x4|"Em" z8 "A4" x4|
"C" z8 "D7" x4|"G4" z8 "G" x4|]]

